public/library/viem-text-light.svg

<svg width="615" height="224" viewBox="0 0 615 224" fill="none" xmlns="http://www.w3.org/2000/svg">
<g clip-path="url(#clip0_14_398)">
<path d="M83.3 220.4L135.66 96.98C142.8 79.64 145.52 77.94 160.14 77.94V70.8H107.1V77.94C120.7 77.94 127.16 78.62 127.16 85.76C127.16 88.48 126.48 91.88 124.44 96.98L94.18 172.46L61.54 95.96C59.84 91.2 58.82 87.8 58.82 85.42C58.82 78.62 65.28 77.94 76.84 77.94V70.8H1.02V77.94C14.96 77.94 17 80.66 23.8 95.62L81.26 220.4H83.3ZM171.915 22.52C171.915 34.08 181.775 43.26 193.335 43.26C204.895 43.26 214.415 34.08 214.415 22.52C214.415 10.62 204.895 1.77999 193.335 1.77999C181.775 1.77999 171.915 10.62 171.915 22.52ZM175.995 96.3V191.5C175.995 208.16 172.595 209.86 157.295 209.86V217H231.075V209.86C215.775 209.86 212.375 208.16 212.375 191.5V70.8H157.295V77.94C172.595 77.94 175.995 79.64 175.995 96.3ZM298.103 76.58C316.123 76.58 324.623 93.92 325.643 118.06H264.783C267.503 90.86 280.423 76.58 298.103 76.58ZM359.303 187.76L354.883 183.68C345.703 195.92 334.483 201.36 320.203 201.36C287.223 201.36 264.103 171.44 264.103 130.3C264.103 128.94 264.103 127.58 264.103 126.56H356.923C356.923 98.34 338.223 67.4 299.123 67.4C263.763 67.4 229.763 101.06 229.763 145.94C229.763 189.8 262.743 220.4 302.863 220.4C324.623 220.4 346.043 209.18 359.303 187.76ZM434.132 209.86C418.832 209.86 415.432 208.16 415.432 191.5V104.8C421.212 93.92 430.732 86.78 442.292 86.78C459.972 86.78 468.812 98.34 468.812 122.82V191.5C468.812 208.16 465.412 209.86 450.112 209.86V217H523.892V209.86C508.252 209.86 504.852 208.16 504.852 191.5V117.04C504.852 113.64 504.512 109.9 504.172 106.84C508.932 95.96 519.132 86.78 531.712 86.78C549.732 86.78 558.572 98.34 558.572 122.82V191.5C558.572 208.16 555.172 209.86 539.872 209.86V217H613.652V209.86C598.012 209.86 594.612 208.16 594.612 191.5V117.04C594.612 89.84 581.692 67.4 550.752 67.4C525.932 67.4 509.272 86.44 503.152 100.38C498.392 81.34 485.472 67.4 460.992 67.4C438.212 67.4 422.232 83.72 415.432 97.32V70.8H360.352V77.94C375.652 77.94 379.052 79.64 379.052 96.3V191.5C379.052 208.16 375.652 209.86 360.352 209.86V217H434.132V209.86Z" fill="#1E1E20"/>
</g>
<defs>
<clipPath id="clip0_14_398">
<rect width="615" height="224" fill="white"/>
</clipPath>
</defs>
</svg>

<svg xmlns="http://www.w3.org/2000/svg" width="615" height="224" fill="none" viewBox="0 0 615 224"><g clip-path="url(#a)"><path fill="#1e1e20" d="m83.3 220.4 52.36-123.42c7.14-17.34 9.86-19.04 24.48-19.04V70.8H107.1v7.14c13.6 0 20.06.68 20.06 7.82 0 2.72-.68 6.12-2.72 11.22l-30.26 75.48-32.64-76.5c-1.7-4.76-2.72-8.16-2.72-10.54 0-6.8 6.46-7.48 18.02-7.48V70.8H1.02v7.14c13.94 0 15.98 2.72 22.78 17.68L81.26 220.4zm88.615-197.88c0 11.56 9.86 20.74 21.42 20.74s21.08-9.18 21.08-20.74c0-11.9-9.52-20.74-21.08-20.74s-21.42 8.84-21.42 20.74m4.08 73.78v95.2c0 16.66-3.4 18.36-18.7 18.36V217h73.78v-7.14c-15.3 0-18.7-1.7-18.7-18.36V70.8h-55.08v7.14c15.3 0 18.7 1.7 18.7 18.36m122.108-19.72c18.02 0 26.52 17.34 27.54 41.48h-60.86c2.72-27.2 15.64-41.48 33.32-41.48m61.2 111.18-4.42-4.08c-9.18 12.24-20.4 17.68-34.68 17.68-32.98 0-56.1-29.92-56.1-71.06v-3.74h92.82c0-28.22-18.7-59.16-57.8-59.16-35.36 0-69.36 33.66-69.36 78.54 0 43.86 32.98 74.46 73.1 74.46 21.76 0 43.18-11.22 56.44-32.64m74.829 22.1c-15.3 0-18.7-1.7-18.7-18.36v-86.7c5.78-10.88 15.3-18.02 26.86-18.02 17.68 0 26.52 11.56 26.52 36.04v68.68c0 16.66-3.4 18.36-18.7 18.36V217h73.78v-7.14c-15.64 0-19.04-1.7-19.04-18.36v-74.46c0-3.4-.34-7.14-.68-10.2 4.76-10.88 14.96-20.06 27.54-20.06 18.02 0 26.86 11.56 26.86 36.04v68.68c0 16.66-3.4 18.36-18.7 18.36V217h73.78v-7.14c-15.64 0-19.04-1.7-19.04-18.36v-74.46c0-27.2-12.92-49.64-43.86-49.64-24.82 0-41.48 19.04-47.6 32.98-4.76-19.04-17.68-32.98-42.16-32.98-22.78 0-38.76 16.32-45.56 29.92V70.8h-55.08v7.14c15.3 0 18.7 1.7 18.7 18.36v95.2c0 16.66-3.4 18.36-18.7 18.36V217h73.78z"/></g><defs><clipPath id="a"><path fill="#fff" d="M0 0h615v224H0z"/></clipPath></defs></svg>
